SF_Symbols/photo.stack.svg

<?xml version="1.0" encoding="UTF-8"?>
<svg xmlns="http://www.w3.org/2000/svg" xmlns:xlink="http://www.w3.org/1999/xlink" width="24" height="24" viewBox="0 0 24 24" version="1.1">
<g id="surface1">
<path style=" stroke:none;fill-rule:nonzero;fill:rgb(100%,100%,100%);fill-opacity:1;" d="M 4.5 23.707031 L 19.511719 23.707031 C 20.488281 23.707031 21.234375 23.457031 21.738281 22.957031 C 22.246094 22.464844 22.5 21.730469 22.5 20.75 L 22.5 20.03125 L 17.300781 15.113281 C 17.085938 14.914062 16.847656 14.765625 16.582031 14.667969 C 16.320312 14.5625 16.050781 14.511719 15.78125 14.511719 C 15.503906 14.511719 15.238281 14.558594 14.988281 14.65625 C 14.746094 14.746094 14.507812 14.894531 14.269531 15.105469 L 9.738281 19.105469 L 7.925781 17.488281 C 7.71875 17.296875 7.5 17.148438 7.269531 17.050781 C 7.046875 16.953125 6.816406 16.90625 6.574219 16.90625 C 6.351562 16.90625 6.132812 16.953125 5.917969 17.050781 C 5.707031 17.148438 5.496094 17.292969 5.28125 17.480469 L 1.5 20.75 C 1.5 21.730469 1.753906 22.464844 2.261719 22.957031 C 2.773438 23.457031 3.519531 23.707031 4.5 23.707031 Z M 8.925781 15.363281 C 9.363281 15.363281 9.765625 15.257812 10.125 15.042969 C 10.484375 14.820312 10.773438 14.527344 10.988281 14.167969 C 11.203125 13.796875 11.3125 13.398438 11.3125 12.96875 C 11.3125 12.539062 11.203125 12.140625 10.988281 11.78125 C 10.773438 11.421875 10.484375 11.132812 10.125 10.917969 C 9.765625 10.703125 9.363281 10.59375 8.925781 10.59375 C 8.488281 10.59375 8.089844 10.703125 7.730469 10.917969 C 7.367188 11.132812 7.078125 11.421875 6.863281 11.78125 C 6.65625 12.140625 6.550781 12.539062 6.550781 12.96875 C 6.550781 13.398438 6.65625 13.796875 6.863281 14.167969 C 7.078125 14.527344 7.367188 14.820312 7.730469 15.042969 C 8.089844 15.257812 8.488281 15.363281 8.925781 15.363281 Z M 4.355469 24 L 19.636719 24 C 20.71875 24 21.535156 23.730469 22.082031 23.1875 C 22.632812 22.644531 22.90625 21.839844 22.90625 20.769531 L 22.90625 10.074219 C 22.90625 9.003906 22.632812 8.199219 22.082031 7.65625 C 21.535156 7.113281 20.71875 6.84375 19.636719 6.84375 L 4.355469 6.84375 C 3.265625 6.84375 2.445312 7.113281 1.894531 7.65625 C 1.355469 8.191406 1.082031 8.996094 1.082031 10.074219 L 1.082031 20.769531 C 1.082031 21.847656 1.355469 22.652344 1.894531 23.1875 C 2.445312 23.730469 3.265625 24 4.355469 24 Z M 4.375 22.324219 C 3.855469 22.324219 3.453125 22.183594 3.175781 21.90625 C 2.898438 21.628906 2.761719 21.21875 2.761719 20.675781 L 2.761719 10.167969 C 2.761719 9.625 2.898438 9.214844 3.175781 8.9375 C 3.453125 8.660156 3.855469 8.519531 4.375 8.519531 L 19.605469 8.519531 C 20.117188 8.519531 20.515625 8.660156 20.800781 8.9375 C 21.085938 9.214844 21.230469 9.625 21.230469 10.167969 L 21.230469 20.675781 C 21.230469 21.21875 21.085938 21.628906 20.800781 21.90625 C 20.515625 22.183594 20.117188 22.324219 19.605469 22.324219 Z M 3.28125 5.167969 L 20.71875 5.167969 C 20.636719 4.695312 20.46875 4.332031 20.21875 4.082031 C 19.976562 3.828125 19.59375 3.699219 19.074219 3.699219 L 4.925781 3.699219 C 4.40625 3.699219 4.019531 3.828125 3.769531 4.082031 C 3.519531 4.332031 3.359375 4.695312 3.28125 5.167969 Z M 5.425781 2.28125 L 18.574219 2.28125 C 18.539062 1.835938 18.390625 1.503906 18.136719 1.28125 C 17.886719 1.050781 17.519531 0.9375 17.042969 0.9375 L 6.949219 0.9375 C 6.46875 0.9375 6.101562 1.050781 5.84375 1.28125 C 5.59375 1.503906 5.453125 1.835938 5.425781 2.28125 Z M 5.425781 2.28125 "/>
</g>
</svg>

<svg xmlns="http://www.w3.org/2000/svg" width="24" height="24"><path style="stroke:none;fill-rule:nonzero;fill:#fff;fill-opacity:1" d="M4.5 23.707h15.012c.976 0 1.722-.25 2.226-.75.508-.492.762-1.227.762-2.207v-.719l-5.2-4.918a2.114 2.114 0 0 0-.718-.445 2.165 2.165 0 0 0-.8-.156c-.278 0-.544.047-.794.144-.242.09-.48.239-.718.45l-4.532 4-1.812-1.618a2.243 2.243 0 0 0-.656-.437 1.707 1.707 0 0 0-.696-.145c-.222 0-.441.047-.656.145-.211.097-.422.242-.637.43L1.5 20.75c0 .98.254 1.715.762 2.207.511.5 1.258.75 2.238.75Zm4.426-8.344c.437 0 .84-.105 1.199-.32.355-.219.648-.52.863-.875.215-.371.325-.77.325-1.2 0-.429-.11-.827-.325-1.187a2.469 2.469 0 0 0-.863-.863 2.314 2.314 0 0 0-1.2-.324c-.437 0-.835.11-1.195.324-.359.21-.656.508-.867.863-.207.36-.312.758-.312 1.188 0 .43.105.828.312 1.199.215.36.504.652.867.875.36.215.758.32 1.196.32ZM4.356 24h15.28c1.083 0 1.9-.27 2.446-.813.55-.542.824-1.347.824-2.417V10.074c0-1.07-.273-1.875-.824-2.418-.547-.543-1.363-.812-2.445-.812H4.355c-1.09 0-1.91.27-2.46.812-.54.535-.813 1.34-.813 2.418V20.77c0 1.078.273 1.882.813 2.418.55.542 1.37.812 2.46.812Zm.019-1.676c-.52 0-.922-.14-1.2-.418-.277-.277-.413-.687-.413-1.23V10.168c0-.543.136-.953.414-1.23.277-.278.68-.418 1.199-.418h15.23c.512 0 .91.14 1.196.418.285.277.43.687.43 1.23v10.508c0 .543-.145.953-.43 1.23-.285.278-.684.418-1.196.418ZM3.281 5.168H20.72c-.082-.473-.25-.836-.5-1.086-.242-.254-.625-.383-1.145-.383H4.926c-.52 0-.906.13-1.156.383-.25.25-.41.613-.489 1.086Zm2.145-2.887h13.148c-.035-.445-.183-.777-.437-1-.25-.23-.617-.343-1.094-.343H6.949c-.48 0-.847.113-1.105.343-.25.223-.39.555-.418 1Zm0 0"/></svg>
